svg/cellphone_basic.svg

<svg xmlns="http://www.w3.org/2000/svg" viewBox="0 0 24 24"><path d="M15 2a1 1 0 0 0-1 1v3h-4c-1.11 0-2 .89-2 2v12c0 1.11.89 2 2 2h5c1.11 0 2-.89 2-2V8c0-.74-.4-1.38-1-1.72V3a1 1 0 0 0-1-1m-5 6h5v5h-5zm0 7h1v1h-1zm2 0h1v1h-1zm2 0h1v1h-1zm-4 2h1v1h-1zm2 0h1v1h-1zm2 0h1v1h-1zm-4 2h1v1h-1zm2 0h1v1h-1zm2 0h1v1h-1z"/></svg>

<?xml version="1.0" encoding="UTF-8"?><!DOCTYPE svg PUBLIC "-//W3C//DTD SVG 1.1//EN" "http://www.w3.org/Graphics/SVG/1.1/DTD/svg11.dtd"><svg xmlns="http://www.w3.org/2000/svg" xmlns:xlink="http://www.w3.org/1999/xlink" version="1.1" id="mdi-cellphone-basic" width="24" height="24" viewBox="0 0 24 24"><path d="M15,2A1,1 0 0,0 14,3V6H10C8.89,6 8,6.89 8,8V20C8,21.11 8.89,22 10,22H15C16.11,22 17,21.11 17,20V8C17,7.26 16.6,6.62 16,6.28V3A1,1 0 0,0 15,2M10,8H15V13H10V8M10,15H11V16H10V15M12,15H13V16H12V15M14,15H15V16H14V15M10,17H11V18H10V17M12,17H13V18H12V17M14,17H15V18H14V17M10,19H11V20H10V19M12,19H13V20H12V19M14,19H15V20H14V19Z" /></svg>
